X:197
T:The Liverpool Packet (a)
M:3/4
L:1/8
K:Bb
B,B,|\
B,3 D F2|F3 E C2|C3 B, B,2|B,4 F2|
F3 D F2|(GA) B2 A2|G2 F3 F|F4 FF|
F3 D F2|(GA) B2 GF|G2 F2 D2|C4 CD|
E2 G2 G2|G2 F2 B,2|C2 B,2 B,2|B,4 B,C|
D6|B,4 FF|F6|B,4BA|G2 E2 B2|F4 FF|
G2 A2 B2|F2 D2 B,2|C2 B,2 B,2|B,4||
